polaris-icons/icons/new-icons/DynamicSourceMajor.svg

<svg width="20" height="20" viewBox="0 0 20 20" fill="none" xmlns="http://www.w3.org/2000/svg">
<path fill-rule="evenodd" clip-rule="evenodd" d="M5.21719 6.19965C5.01966 6.38647 5 6.50511 5 6.55C5 6.59489 5.01966 6.71353 5.21719 6.90035C5.41632 7.08866 5.7447 7.2928 6.21268 7.47999C7.14448 7.85271 8.48317 8.1 10 8.1C11.5168 8.1 12.8555 7.85271 13.7873 7.47999C14.2553 7.2928 14.5837 7.08866 14.7828 6.90035C14.9803 6.71353 15 6.59489 15 6.55C15 6.50511 14.9803 6.38647 14.7828 6.19965C14.5837 6.01134 14.2553 5.8072 13.7873 5.62001C12.8555 5.24729 11.5168 5 10 5C8.48317 5 7.14448 5.24729 6.21268 5.62001C5.7447 5.8072 5.41632 6.01134 5.21719 6.19965ZM15 8.56662C14.794 8.67903 14.5739 8.78089 14.3444 8.8727C13.1951 9.33242 11.6588 9.6 10 9.6C8.34119 9.6 6.80489 9.33242 5.65559 8.8727C5.42605 8.78089 5.20598 8.67903 5 8.56662V9.98C5 10.0249 5.01966 10.1435 5.21719 10.3303C5.41632 10.5187 5.7447 10.7228 6.21268 10.91C7.14448 11.2827 8.48317 11.53 10 11.53C11.5168 11.53 12.8555 11.2827 13.7873 10.91C14.2553 10.7228 14.5837 10.5187 14.7828 10.3303C14.9803 10.1435 15 10.0249 15 9.98V8.56662ZM15 11.9966C14.794 12.109 14.5739 12.2109 14.3444 12.3027C13.1951 12.7624 11.6588 13.03 10 13.03C8.34119 13.03 6.80489 12.7624 5.65559 12.3027C5.42605 12.2109 5.20598 12.109 5 11.9966V13.45C5 13.4949 5.01966 13.6135 5.21719 13.8003C5.41632 13.9887 5.7447 14.1928 6.21268 14.38C7.14448 14.7527 8.48317 15 10 15C11.5168 15 12.8555 14.7527 13.7873 14.38C14.2553 14.1928 14.5837 13.9887 14.7828 13.8003C14.9803 13.6135 15 13.4949 15 13.45V11.9966ZM16.5 13.45C16.5 14.0402 16.1979 14.5267 15.8135 14.8902C15.4307 15.2522 14.917 15.5437 14.3444 15.7727C13.1951 16.2324 11.6588 16.5 10 16.5C8.34119 16.5 6.80489 16.2324 5.65559 15.7727C5.08303 15.5437 4.56934 15.2522 4.18653 14.8902C3.80214 14.5267 3.5 14.0402 3.5 13.45V6.55C3.5 5.95976 3.80214 5.47334 4.18653 5.10982C4.56934 4.74779 5.08303 4.45632 5.65559 4.2273C6.80489 3.76758 8.34119 3.5 10 3.5C11.6588 3.5 13.1951 3.76758 14.3444 4.2273C14.917 4.45632 15.4307 4.74779 15.8135 5.10982C16.1979 5.47334 16.5 5.95976 16.5 6.55V13.45Z" fill="#4A4A4A"/>
</svg>

<svg viewBox="0 0 20 20" xmlns="http://www.w3.org/2000/svg"><path fill-rule="evenodd" d="M5.217 6.2c-.197.186-.217.305-.217.35 0 .045.02.164.217.35.2.189.528.393.996.58.931.373 2.27.62 3.787.62s2.855-.247 3.787-.62c.468-.187.797-.391.996-.58.197-.186.217-.305.217-.35 0-.045-.02-.164-.217-.35-.2-.189-.528-.393-.996-.58-.932-.373-2.27-.62-3.787-.62s-2.856.247-3.787.62c-.468.187-.797.391-.996.58Zm9.783 2.367a6.104 6.104 0 0 1-.656.306c-1.149.46-2.685.727-4.344.727-1.659 0-3.195-.268-4.344-.727a6.099 6.099 0 0 1-.656-.306v1.413c0 .045.02.163.217.35.2.189.528.393.996.58.931.373 2.27.62 3.787.62s2.855-.247 3.787-.62c.468-.187.797-.391.996-.58.197-.187.217-.305.217-.35v-1.413Zm0 3.43a6.104 6.104 0 0 1-.656.306c-1.149.46-2.685.727-4.344.727-1.659 0-3.195-.268-4.344-.727a6.099 6.099 0 0 1-.656-.306v1.453c0 .045.02.164.217.35.2.189.528.393.996.58.931.373 2.27.62 3.787.62s2.855-.247 3.787-.62c.468-.187.797-.391.996-.58.197-.187.217-.305.217-.35v-1.453Zm1.5 1.453c0 .59-.302 1.077-.687 1.44-.382.362-.896.654-1.469.883-1.149.46-2.685.727-4.344.727-1.659 0-3.195-.268-4.344-.727-.573-.23-1.087-.52-1.47-.883-.384-.363-.686-.85-.686-1.44v-6.9c0-.59.302-1.077.687-1.44.382-.362.896-.654 1.469-.883 1.149-.46 2.685-.727 4.344-.727 1.659 0 3.195.268 4.344.727.573.23 1.087.52 1.47.883.384.363.686.85.686 1.44v6.9Z" fill="#5C5F62"/></svg>
